!!! OTL: Literature24
!!! Chapter: 5
!!! Section: I
!!! Page: 349
!!! Mode: 
!!! Encoder: DJB
**kern
*staff1
*I"Piano
=1-
*clefG2
*k[f#c#g#]
*A:
*met(c)
*M4/4
4r
4r
4r
8r
8e/
=2
4a/
8a/L
8a/J
4a/
8a/L
8a/J
=3
8b/L
8b/J
4a/
4f#/
8e/L
8f#/J
=4
2.a/
8e/L
8f#/J
=5
2.a/
4cc#\
=6
4ee\
8ee\L
8ee\J
4ee\
8cc#\L
8ee\J
=7
4ff#\
4ee\
4cc#\
8a/L
8a/J
=8
!!linebreak:original
4a/
8a/L
8a/J
4a/
8a/L
8a/J
=9
8b/L
8b/J
4a/
4f#/
8e/L
8f#/J
=10
2.a/
8cc#\L
8b\J
=11
2.a/
8e/L
8f#/J
=12
2.a/
8cc#\L
8b\J
=13
2.a/
4r
==
*-
